Newaita/actions/16/view-right-new.svg

<svg height="16" viewBox="0 0 16 16" width="16" xmlns="http://www.w3.org/2000/svg"><g fill="#424242"><path d="m10.253906 11.703125h3.96875c.183594 0 .332032.148437.332032.328125v.664062c0 .179688-.148438.328126-.332032.328126h-3.96875c-.183594 0-.332031-.148438-.332031-.328126v-.664062c0-.179688.148437-.328125.332031-.328125zm0 0"/><path d="m12.898438 10.378906v3.96875c0 .183594-.148438.332032-.328126.332032h-.664062c-.179688 0-.328125-.148438-.328125-.332032v-3.96875c0-.183594.148437-.332031.328125-.332031h.664062c.179688 0 .328126.148437.328126.332031zm0 0"/><path d="m2.644531 1.449219c-.730469 0-1.320312.589843-1.320312 1.320312v10.585938c0 .734375.589843 1.324219 1.320312 1.324219h5.957031v-1.324219h-2.648437v-10.585938h6.617187c.363282 0 .660157.296875.660157.664063v5.292968h1.324219v-5.957031c0-.730469-.589844-1.320312-1.324219-1.320312zm.664063 1.320312h1.984375v10.585938h-1.984375c-.367188 0-.664063-.296875-.664063-.660157v-9.261718c0-.367188.296875-.664063.664063-.664063zm0 0"/></g></svg>

<svg xmlns="http://www.w3.org/2000/svg" xmlns:xlink="http://www.w3.org/1999/xlink" width="16px" height="16px" viewBox="0 0 16 16" version="1.1">
<g id="surface1">
     <defs>
  <style id="current-color-scheme" type="text/css">
   .ColorScheme-Text { color:#424242; } .ColorScheme-Highlight { color:#eeeeee; }
  </style>
 </defs>
<path style="fill:currentColor" class="ColorScheme-Text" d="M 10.253906 11.703125 L 14.222656 11.703125 C 14.40625 11.703125 14.554688 11.851562 14.554688 12.03125 L 14.554688 12.695312 C 14.554688 12.875 14.40625 13.023438 14.222656 13.023438 L 10.253906 13.023438 C 10.070312 13.023438 9.921875 12.875 9.921875 12.695312 L 9.921875 12.03125 C 9.921875 11.851562 10.070312 11.703125 10.253906 11.703125 Z M 10.253906 11.703125 "/>
     <defs>
  <style id="current-color-scheme" type="text/css">
   .ColorScheme-Text { color:#424242; } .ColorScheme-Highlight { color:#eeeeee; }
  </style>
 </defs>
<path style="fill:currentColor" class="ColorScheme-Text" d="M 12.898438 10.378906 L 12.898438 14.347656 C 12.898438 14.53125 12.75 14.679688 12.570312 14.679688 L 11.90625 14.679688 C 11.726562 14.679688 11.578125 14.53125 11.578125 14.347656 L 11.578125 10.378906 C 11.578125 10.195312 11.726562 10.046875 11.90625 10.046875 L 12.570312 10.046875 C 12.75 10.046875 12.898438 10.195312 12.898438 10.378906 Z M 12.898438 10.378906 "/>
     <defs>
  <style id="current-color-scheme" type="text/css">
   .ColorScheme-Text { color:#424242; } .ColorScheme-Highlight { color:#eeeeee; }
  </style>
 </defs>
<path style="fill:currentColor" class="ColorScheme-Text" d="M 2.644531 1.449219 C 1.914062 1.449219 1.324219 2.039062 1.324219 2.769531 L 1.324219 13.355469 C 1.324219 14.089844 1.914062 14.679688 2.644531 14.679688 L 8.601562 14.679688 L 8.601562 13.355469 L 5.953125 13.355469 L 5.953125 2.769531 L 12.570312 2.769531 C 12.933594 2.769531 13.230469 3.066406 13.230469 3.433594 L 13.230469 8.726562 L 14.554688 8.726562 L 14.554688 2.769531 C 14.554688 2.039062 13.964844 1.449219 13.230469 1.449219 Z M 3.308594 2.769531 L 5.292969 2.769531 L 5.292969 13.355469 L 3.308594 13.355469 C 2.941406 13.355469 2.644531 13.058594 2.644531 12.695312 L 2.644531 3.433594 C 2.644531 3.066406 2.941406 2.769531 3.308594 2.769531 Z M 3.308594 2.769531 "/>
</g>
</svg>
